resources/icons/svg/hot.svg

<?xml version="1.0" encoding="UTF-8" standalone="no"?>
<svg
   xmlns:dc="http://purl.org/dc/elements/1.1/"
   xmlns:cc="http://creativecommons.org/ns#"
   xmlns:rdf="http://www.w3.org/1999/02/22-rdf-syntax-ns#"
   xmlns:svg="http://www.w3.org/2000/svg"
   xmlns="http://www.w3.org/2000/svg"
   xmlns:sodipodi="http://sodipodi.sourceforge.net/DTD/sodipodi-0.dtd"
   xmlns:inkscape="http://www.inkscape.org/namespaces/inkscape"
   version="1.1"
   x="0px"
   y="0px"
   viewBox="0 0 1000 1000"
   enable-background="new 0 0 1000 1000"
   xml:space="preserve"
   id="svg40"
   sodipodi:docname="hot.svg"
   inkscape:version="1.0.2-2 (e86c870879, 2021-01-15)"
   inkscape:export-filename="C:\Users\user\Desktop\hot.png"
   inkscape:export-xdpi="96"
   inkscape:export-ydpi="96"><defs
   id="defs44" /><sodipodi:namedview
   pagecolor="#ffffff"
   bordercolor="#666666"
   borderopacity="1"
   objecttolerance="10"
   gridtolerance="10"
   guidetolerance="10"
   inkscape:pageopacity="0"
   inkscape:pageshadow="2"
   inkscape:window-width="1920"
   inkscape:window-height="1001"
   id="namedview42"
   showgrid="false"
   inkscape:zoom="0.83"
   inkscape:cx="500"
   inkscape:cy="500"
   inkscape:window-x="-9"
   inkscape:window-y="-9"
   inkscape:window-maximized="1"
   inkscape:current-layer="svg40" />
<metadata
   id="metadata2"> Svg Vector Icons : http://www.onlinewebfonts.com/icon <rdf:RDF><cc:Work
     rdf:about=""><dc:format>image/svg+xml</dc:format><dc:type
       rdf:resource="http://purl.org/dc/dcmitype/StillImage" /></cc:Work></rdf:RDF></metadata>
<g
   id="g38"
   style="fill:#b3b3b3;fill-opacity:1"><g
     id="g6"
     style="fill:#b3b3b3;fill-opacity:1"><path
       d="M99.5,301.7c95.1-81.7,170.3-146.3,374.1-31.1c97.9,55.3,176.9,76.2,242.7,76.2c115.2,0,189.8-64.1,254.3-119.5c23-19.8,26-54.8,6.6-78.3c-19.4-23.5-53.7-26.5-76.7-6.8c-95.1,81.7-170.2,146.3-374.2,31.1C256.9,21.1,130.8,129.5,29.4,216.6c-23,19.8-26,54.8-6.6,78.3C42.1,318.5,76.5,321.5,99.5,301.7z M900.5,420.3c-95.1,81.7-170.2,146.3-374.2,31.1c-269.4-152.2-395.5-43.8-496.9,43.3c-23,19.8-26,54.8-6.6,78.3c19.3,23.5,53.7,26.5,76.7,6.8c95.1-81.7,170.3-146.3,374.1-31.1c97.9,55.3,176.9,76.2,242.7,76.2c115.2,0,189.8-64.1,254.3-119.5c23-19.8,26-54.8,6.6-78.3C957.9,403.5,923.5,400.5,900.5,420.3z M900.5,698.3c-95.1,81.7-170.2,146.3-374.2,31.1c-269.4-152.2-395.5-43.8-496.9,43.3c-23,19.8-26,54.8-6.6,78.4c19.3,23.5,53.7,26.5,76.7,6.8c95.1-81.7,170.3-146.3,374.1-31.1c97.9,55.3,176.9,76.2,242.7,76.2c115.2,0,189.8-64.1,254.3-119.5c23-19.8,26-54.9,6.6-78.4C957.9,681.5,923.5,678.5,900.5,698.3z"
       id="path4"
       style="fill:#b3b3b3;fill-opacity:1" /></g><g
     id="g8"
     style="fill:#b3b3b3;fill-opacity:1" /><g
     id="g10"
     style="fill:#b3b3b3;fill-opacity:1" /><g
     id="g12"
     style="fill:#b3b3b3;fill-opacity:1" /><g
     id="g14"
     style="fill:#b3b3b3;fill-opacity:1" /><g
     id="g16"
     style="fill:#b3b3b3;fill-opacity:1" /><g
     id="g18"
     style="fill:#b3b3b3;fill-opacity:1" /><g
     id="g20"
     style="fill:#b3b3b3;fill-opacity:1" /><g
     id="g22"
     style="fill:#b3b3b3;fill-opacity:1" /><g
     id="g24"
     style="fill:#b3b3b3;fill-opacity:1" /><g
     id="g26"
     style="fill:#b3b3b3;fill-opacity:1" /><g
     id="g28"
     style="fill:#b3b3b3;fill-opacity:1" /><g
     id="g30"
     style="fill:#b3b3b3;fill-opacity:1" /><g
     id="g32"
     style="fill:#b3b3b3;fill-opacity:1" /><g
     id="g34"
     style="fill:#b3b3b3;fill-opacity:1" /><g
     id="g36"
     style="fill:#b3b3b3;fill-opacity:1" /></g>
<path
   style="fill:#b3b3b3;stroke-width:1.20482;fill-opacity:1"
   d="M 684.93976,622.80319 C 620.17328,615.69096 556.69812,593.38665 477.10843,549.77406 435.44286,526.94266 417.06816,518.14848 388.16004,507.20313 343.62766,490.34204 303.42406,483.3426 269.57561,486.5576 242.4892,489.13032 224.64713,494.11693 200,506.00301 c -23.37237,11.27134 -53.87283,32.73065 -86.74699,61.03291 -21.958016,18.90425 -28.076265,22.50286 -41.34348,24.31726 -28.813926,3.94055 -55.573876,-16.31649 -60.539704,-45.82801 -2.5828712,-15.34981 2.853007,-33.4127 13.551252,-45.0295 6.960855,-7.55851 44.654853,-38.97342 64.742053,-53.95728 30.838999,-23.00407 65.099139,-42.26303 94.674219,-53.22007 47.06108,-17.4353 100.90865,-21.75276 156.0241,-12.50989 54.55074,9.14816 112.54086,31.20776 181.90277,69.19631 76.50797,41.90235 124.25149,59.16201 175.63066,63.49184 36.55942,3.08094 69.75955,-3.37334 103.68169,-20.15628 24.99218,-12.36485 50.78708,-30.84806 90.92432,-65.15136 7.30028,-6.23919 16.58248,-12.96286 20.62713,-14.94149 19.66209,-9.61863 43.73398,-5.37378 59.62062,10.51353 22.7013,22.70227 21.83412,57.556 -1.99113,80.0272 -21.34127,20.12839 -67.68338,56.29102 -90.86903,70.90881 -16.18279,10.20271 -47.63985,25.91828 -63.62342,31.7855 -15.39511,5.65122 -39.74242,11.92916 -56.6983,14.61963 -14.89446,2.36339 -59.36493,3.37706 -74.627,1.70107 z"
   id="path48" /><path
   style="fill:#b3b3b3;stroke-width:1.20482;fill-opacity:1"
   d="m 678.85542,343.98089 c -62.68324,-7.59901 -126.40273,-30.72129 -207.16867,-75.17656 -96.95038,-53.36353 -164.70628,-70.215 -227.5624,-56.59671 -39.17476,8.48754 -74.06049,28.66028 -126.44788,73.11875 -20.908936,17.74434 -25.682453,21.3341 -32.207098,24.22026 -20.056829,8.87209 -42.008039,4.54136 -58.056702,-11.45394 -22.2939241,-22.2198 -22.2939241,-55.97141 0,-78.07327 9.306238,-9.22605 40.054328,-34.83102 59.080629,-49.19841 63.443561,-47.90835 120.170471,-70.06316 186.398271,-72.798228 72.43904,-2.991576 155.86715,21.873898 251.20482,74.870768 61.18777,34.01343 109.40716,52.90515 154.21686,60.42014 17.96795,3.01338 54.16162,3.00927 70.48193,-0.008 43.004,-7.95052 82.47168,-30.60793 140.96386,-80.92386 16.17127,-13.91079 21.02303,-17.14024 29.84361,-19.86465 32.55625,-10.0556 65.22127,12.11526 69.54504,47.2026 1.05702,8.57778 -1.83682,21.97163 -6.73115,31.15431 -5.54911,10.41118 -29.4525,32.12994 -66.15148,60.10558 -58.40217,44.51999 -110.17241,67.02326 -169.27711,73.58067 -14.70115,1.63103 -52.55412,1.3091 -68.13253,-0.57944 z"
   id="path50" /><path
   style="fill:none;stroke-width:1.20482;stroke:none"
   d="m 687.43596,901.06971 c -62.74637,-5.57111 -133.44247,-30.40928 -213.94198,-75.16577 -47.74573,-26.54589 -91.4514,-45.0611 -127.76259,-54.12457 -23.20516,-5.79214 -34.63866,-7.17924 -59.58681,-7.22906 -20.11299,-0.0401 -25.48789,0.36304 -37.3494,2.80173 -42.42112,8.72165 -76.6797,28.14144 -131.92771,74.78447 -23.768734,20.06671 -27.282023,22.50839 -36.470124,25.34631 -20.806,6.42632 -43.803313,-0.50775 -57.077175,-17.20971 C 9.2048008,832.5123 6.8686941,810.46525 16.994937,790.57859 22.024655,780.70087 23.212851,779.36565 39.759036,764.99779 116.25314,698.57423 169.2644,669.61433 236.14458,657.7129 c 18.36922,-3.26883 57.80288,-4.44646 78.51473,-2.34473 64.34674,6.52955 129.49427,29.60378 212.44912,75.24614 78.96512,43.44717 133.38299,61.2414 187.3494,61.26185 28.6199,0.0108 50.06877,-4.24696 75.30121,-14.94797 26.76457,-11.35079 52.18607,-28.41646 92.16867,-61.87363 13.91566,-11.64454 28.01205,-22.455 31.3253,-24.02326 20.31613,-9.61619 42.93333,-5.47044 59.33432,10.87601 16.79862,16.74277 21.31732,40.59341 11.69913,61.75039 -4.32988,9.52437 -8.96656,14.73665 -26.37568,29.65003 -36.64637,31.39284 -65.7109,52.6732 -94.30251,69.04609 -54.56873,31.24859 -113.76252,44.25711 -176.17231,38.71589 z"
   id="path54" /><path
   style="fill:none;stroke:none;stroke-width:1.20482"
   d="m 674.1044,621.04918 c -66.22523,-10.09934 -119.74023,-30.09967 -207.23693,-77.45134 -39.63529,-21.44991 -65.24439,-32.87268 -97.4328,-43.45925 -59.49728,-19.56828 -111.99119,-19.41996 -158.49278,0.44784 -30.23664,12.91859 -51.78937,27.71424 -107.92984,74.09228 -5.632532,4.65307 -13.00925,9.83954 -16.39271,11.52549 -25.203516,12.55873 -57.091993,0.49919 -69.879072,-26.42678 -9.3004534,-19.58411 -5.88436,-42.25147 8.834751,-58.62266 9.794538,-10.89388 55.837373,-48.42114 78.641851,-64.09712 51.15464,-35.1641 97.7172,-53.5315 149.18249,-58.84759 17.47697,-1.80528 62.91342,-0.76109 78.78435,1.81056 62.50382,10.12785 116.59598,30.6741 200.34641,76.09916 63.62025,34.50673 111.93561,51.95947 158.42766,57.2281 19.46528,2.20586 46.82729,0.89743 64.37142,-3.0782 40.61535,-9.20372 72.33527,-27.38494 127.16156,-72.88643 26.99032,-22.39985 31.9674,-25.48114 45.05319,-27.89229 21.87665,-4.03093 45.35787,8.9208 55.71578,30.73163 9.49592,19.99571 5.81646,42.19176 -9.89009,59.66123 -11.6465,12.95371 -60.40131,51.87161 -88.50746,70.64995 -15.34225,10.25049 -53.05911,29.52729 -69.14511,35.33952 -13.06147,4.71941 -38.28068,11.41188 -53.06647,14.08235 -15.48188,2.79619 -72.74401,3.50337 -88.5462,1.09355 z"
   id="path879" /></svg>

<?xml version="1.0" encoding="UTF-8" standalone="no"?>
<svg
   xmlns:dc="http://purl.org/dc/elements/1.1/"
   xmlns:cc="http://creativecommons.org/ns#"
   xmlns:rdf="http://www.w3.org/1999/02/22-rdf-syntax-ns#"
   xmlns:svg="http://www.w3.org/2000/svg"
   xmlns="http://www.w3.org/2000/svg"
   xmlns:sodipodi="http://sodipodi.sourceforge.net/DTD/sodipodi-0.dtd"
   xmlns:inkscape="http://www.inkscape.org/namespaces/inkscape"
   version="1.1"
   x="0px"
   y="0px"
   viewBox="0 0 80 80"
   enable-background="new 0 0 1000 1000"
   xml:space="preserve"
   id="svg40"
   sodipodi:docname="hot.svg"
   inkscape:version="1.0.2-2 (e86c870879, 2021-01-15)"
   inkscape:export-filename="C:\Users\user\Desktop\hot.png"
   inkscape:export-xdpi="96"
   inkscape:export-ydpi="96"
   width="80"
   height="80"><defs
   id="defs44" /><sodipodi:namedview
   pagecolor="#ffffff"
   bordercolor="#666666"
   borderopacity="1"
   objecttolerance="10"
   gridtolerance="10"
   guidetolerance="10"
   inkscape:pageopacity="0"
   inkscape:pageshadow="2"
   inkscape:window-width="1920"
   inkscape:window-height="1001"
   id="namedview42"
   showgrid="false"
   inkscape:zoom="6.64"
   inkscape:cx="18.102889"
   inkscape:cy="75.854757"
   inkscape:window-x="-9"
   inkscape:window-y="-9"
   inkscape:window-maximized="1"
   inkscape:current-layer="svg40"
   inkscape:document-rotation="0"
   fit-margin-top="0"
   fit-margin-left="0"
   fit-margin-right="0"
   fit-margin-bottom="0" />
<metadata
   id="metadata2"> Svg Vector Icons : http://www.onlinewebfonts.com/icon <rdf:RDF><cc:Work
     rdf:about=""><dc:format>image/svg+xml</dc:format><dc:type
       rdf:resource="http://purl.org/dc/dcmitype/StillImage" /><dc:title></dc:title></cc:Work></rdf:RDF></metadata>

<g
   id="g873"
   transform="matrix(0.0816321,0,0,0.09926632,-0.81604832,-9.6374906)"><g
     id="g38"
     style="fill:#b3b3b3;fill-opacity:1"><g
       id="g6"
       style="fill:#b3b3b3;fill-opacity:1"><path
         d="m 99.5,301.7 c 95.1,-81.7 170.3,-146.3 374.1,-31.1 97.9,55.3 176.9,76.2 242.7,76.2 115.2,0 189.8,-64.1 254.3,-119.5 23,-19.8 26,-54.8 6.6,-78.3 -19.4,-23.5 -53.7,-26.5 -76.7,-6.8 C 805.4,223.9 730.3,288.5 526.3,173.3 256.9,21.1 130.8,129.5 29.4,216.6 c -23,19.8 -26,54.8 -6.6,78.3 19.3,23.6 53.7,26.6 76.7,6.8 z m 801,118.6 C 805.4,502 730.3,566.6 526.3,451.4 256.9,299.2 130.8,407.6 29.4,494.7 c -23,19.8 -26,54.8 -6.6,78.3 19.3,23.5 53.7,26.5 76.7,6.8 95.1,-81.7 170.3,-146.3 374.1,-31.1 97.9,55.3 176.9,76.2 242.7,76.2 115.2,0 189.8,-64.1 254.3,-119.5 23,-19.8 26,-54.8 6.6,-78.3 -19.3,-23.6 -53.7,-26.6 -76.7,-6.8 z m 0,278 C 805.4,780 730.3,844.6 526.3,729.4 256.9,577.2 130.8,685.6 29.4,772.7 c -23,19.8 -26,54.8 -6.6,78.4 19.3,23.5 53.7,26.5 76.7,6.8 95.1,-81.7 170.3,-146.3 374.1,-31.1 97.9,55.3 176.9,76.2 242.7,76.2 115.2,0 189.8,-64.1 254.3,-119.5 23,-19.8 26,-54.9 6.6,-78.4 -19.3,-23.6 -53.7,-26.6 -76.7,-6.8 z"
         id="path4"
         style="fill:#b3b3b3;fill-opacity:1" /></g><g
       id="g8"
       style="fill:#b3b3b3;fill-opacity:1" /><g
       id="g10"
       style="fill:#b3b3b3;fill-opacity:1" /><g
       id="g12"
       style="fill:#b3b3b3;fill-opacity:1" /><g
       id="g14"
       style="fill:#b3b3b3;fill-opacity:1" /><g
       id="g16"
       style="fill:#b3b3b3;fill-opacity:1" /><g
       id="g18"
       style="fill:#b3b3b3;fill-opacity:1" /><g
       id="g20"
       style="fill:#b3b3b3;fill-opacity:1" /><g
       id="g22"
       style="fill:#b3b3b3;fill-opacity:1" /><g
       id="g24"
       style="fill:#b3b3b3;fill-opacity:1" /><g
       id="g26"
       style="fill:#b3b3b3;fill-opacity:1" /><g
       id="g28"
       style="fill:#b3b3b3;fill-opacity:1" /><g
       id="g30"
       style="fill:#b3b3b3;fill-opacity:1" /><g
       id="g32"
       style="fill:#b3b3b3;fill-opacity:1" /><g
       id="g34"
       style="fill:#b3b3b3;fill-opacity:1" /><g
       id="g36"
       style="fill:#b3b3b3;fill-opacity:1" /></g><path
     style="fill:#b3b3b3;fill-opacity:1;stroke-width:1.20482"
     d="M 684.93976,622.80319 C 620.17328,615.69096 556.69812,593.38665 477.10843,549.77406 435.44286,526.94266 417.06816,518.14848 388.16004,507.20313 343.62766,490.34204 303.42406,483.3426 269.57561,486.5576 242.4892,489.13032 224.64713,494.11693 200,506.00301 c -23.37237,11.27134 -53.87283,32.73065 -86.74699,61.03291 -21.958016,18.90425 -28.076265,22.50286 -41.34348,24.31726 -28.813926,3.94055 -55.573876,-16.31649 -60.539704,-45.82801 -2.5828712,-15.34981 2.853007,-33.4127 13.551252,-45.0295 6.960855,-7.55851 44.654853,-38.97342 64.742053,-53.95728 30.838999,-23.00407 65.099139,-42.26303 94.674219,-53.22007 47.06108,-17.4353 100.90865,-21.75276 156.0241,-12.50989 54.55074,9.14816 112.54086,31.20776 181.90277,69.19631 76.50797,41.90235 124.25149,59.16201 175.63066,63.49184 36.55942,3.08094 69.75955,-3.37334 103.68169,-20.15628 24.99218,-12.36485 50.78708,-30.84806 90.92432,-65.15136 7.30028,-6.23919 16.58248,-12.96286 20.62713,-14.94149 19.66209,-9.61863 43.73398,-5.37378 59.62062,10.51353 22.7013,22.70227 21.83412,57.556 -1.99113,80.0272 -21.34127,20.12839 -67.68338,56.29102 -90.86903,70.90881 -16.18279,10.20271 -47.63985,25.91828 -63.62342,31.7855 -15.39511,5.65122 -39.74242,11.92916 -56.6983,14.61963 -14.89446,2.36339 -59.36493,3.37706 -74.627,1.70107 z"
     id="path48" /><path
     style="fill:#b3b3b3;fill-opacity:1;stroke-width:1.20482"
     d="m 678.85542,343.98089 c -62.68324,-7.59901 -126.40273,-30.72129 -207.16867,-75.17656 -96.95038,-53.36353 -164.70628,-70.215 -227.5624,-56.59671 -39.17476,8.48754 -74.06049,28.66028 -126.44788,73.11875 -20.908936,17.74434 -25.682453,21.3341 -32.207098,24.22026 -20.056829,8.87209 -42.008039,4.54136 -58.056702,-11.45394 -22.2939241,-22.2198 -22.2939241,-55.97141 0,-78.07327 9.306238,-9.22605 40.054328,-34.83102 59.080629,-49.19841 63.443561,-47.90835 120.170471,-70.06316 186.398271,-72.798228 72.43904,-2.991576 155.86715,21.873898 251.20482,74.870768 61.18777,34.01343 109.40716,52.90515 154.21686,60.42014 17.96795,3.01338 54.16162,3.00927 70.48193,-0.008 43.004,-7.95052 82.47168,-30.60793 140.96386,-80.92386 16.17127,-13.91079 21.02303,-17.14024 29.84361,-19.86465 32.55625,-10.0556 65.22127,12.11526 69.54504,47.2026 1.05702,8.57778 -1.83682,21.97163 -6.73115,31.15431 -5.54911,10.41118 -29.4525,32.12994 -66.15148,60.10558 -58.40217,44.51999 -110.17241,67.02326 -169.27711,73.58067 -14.70115,1.63103 -52.55412,1.3091 -68.13253,-0.57944 z"
     id="path50" /><path
     style="fill:none;stroke:none;stroke-width:1.20482"
     d="m 687.43596,901.06971 c -62.74637,-5.57111 -133.44247,-30.40928 -213.94198,-75.16577 -47.74573,-26.54589 -91.4514,-45.0611 -127.76259,-54.12457 -23.20516,-5.79214 -34.63866,-7.17924 -59.58681,-7.22906 -20.11299,-0.0401 -25.48789,0.36304 -37.3494,2.80173 -42.42112,8.72165 -76.6797,28.14144 -131.92771,74.78447 -23.768734,20.06671 -27.282023,22.50839 -36.470124,25.34631 -20.806,6.42632 -43.803313,-0.50775 -57.077175,-17.20971 C 9.2048008,832.5123 6.8686941,810.46525 16.994937,790.57859 22.024655,780.70087 23.212851,779.36565 39.759036,764.99779 116.25314,698.57423 169.2644,669.61433 236.14458,657.7129 c 18.36922,-3.26883 57.80288,-4.44646 78.51473,-2.34473 64.34674,6.52955 129.49427,29.60378 212.44912,75.24614 78.96512,43.44717 133.38299,61.2414 187.3494,61.26185 28.6199,0.0108 50.06877,-4.24696 75.30121,-14.94797 26.76457,-11.35079 52.18607,-28.41646 92.16867,-61.87363 13.91566,-11.64454 28.01205,-22.455 31.3253,-24.02326 20.31613,-9.61619 42.93333,-5.47044 59.33432,10.87601 16.79862,16.74277 21.31732,40.59341 11.69913,61.75039 -4.32988,9.52437 -8.96656,14.73665 -26.37568,29.65003 -36.64637,31.39284 -65.7109,52.6732 -94.30251,69.04609 -54.56873,31.24859 -113.76252,44.25711 -176.17231,38.71589 z"
     id="path54" /><path
     style="fill:none;stroke:none;stroke-width:1.20482"
     d="m 674.1044,621.04918 c -66.22523,-10.09934 -119.74023,-30.09967 -207.23693,-77.45134 -39.63529,-21.44991 -65.24439,-32.87268 -97.4328,-43.45925 -59.49728,-19.56828 -111.99119,-19.41996 -158.49278,0.44784 -30.23664,12.91859 -51.78937,27.71424 -107.92984,74.09228 -5.632532,4.65307 -13.00925,9.83954 -16.39271,11.52549 -25.203516,12.55873 -57.091993,0.49919 -69.879072,-26.42678 -9.3004534,-19.58411 -5.88436,-42.25147 8.834751,-58.62266 9.794538,-10.89388 55.837373,-48.42114 78.641851,-64.09712 51.15464,-35.1641 97.7172,-53.5315 149.18249,-58.84759 17.47697,-1.80528 62.91342,-0.76109 78.78435,1.81056 62.50382,10.12785 116.59598,30.6741 200.34641,76.09916 63.62025,34.50673 111.93561,51.95947 158.42766,57.2281 19.46528,2.20586 46.82729,0.89743 64.37142,-3.0782 40.61535,-9.20372 72.33527,-27.38494 127.16156,-72.88643 26.99032,-22.39985 31.9674,-25.48114 45.05319,-27.89229 21.87665,-4.03093 45.35787,8.9208 55.71578,30.73163 9.49592,19.99571 5.81646,42.19176 -9.89009,59.66123 -11.6465,12.95371 -60.40131,51.87161 -88.50746,70.64995 -15.34225,10.25049 -53.05911,29.52729 -69.14511,35.33952 -13.06147,4.71941 -38.28068,11.41188 -53.06647,14.08235 -15.48188,2.79619 -72.74401,3.50337 -88.5462,1.09355 z"
     id="path879" /></g></svg>
